storage/app/icons/phosphoricons/fill/trophy-fill.svg

<svg xmlns="http://www.w3.org/2000/svg" viewBox="0 0 256 256" fill="currentColor"><path d="M232,64H208V48a8,8,0,0,0-8-8H56a8,8,0,0,0-8,8V64H24A16,16,0,0,0,8,80V96a40,40,0,0,0,40,40h3.65A80.13,80.13,0,0,0,120,191.61V216H96a8,8,0,0,0,0,16h64a8,8,0,0,0,0-16H136V191.58c31.94-3.23,58.44-25.64,68.08-55.58H208a40,40,0,0,0,40-40V80A16,16,0,0,0,232,64ZM48,120A24,24,0,0,1,24,96V80H48v32q0,4,.39,8ZM232,96a24,24,0,0,1-24,24h-.5a81.81,81.81,0,0,0,.5-8.9V80h24Z"/></svg>

<svg xmlns="http://www.w3.org/2000/svg" fill="currentColor" viewBox="0 0 256 256"><path d="M232 64h-24V48a8 8 0 0 0-8-8H56a8 8 0 0 0-8 8v16H24A16 16 0 0 0 8 80v16a40 40 0 0 0 40 40h3.65A80.13 80.13 0 0 0 120 191.61V216H96a8 8 0 0 0 0 16h64a8 8 0 0 0 0-16h-24v-24.42c31.94-3.23 58.44-25.64 68.08-55.58H208a40 40 0 0 0 40-40V80a16 16 0 0 0-16-16M48 120a24 24 0 0 1-24-24V80h24v32q0 4 .39 8Zm184-24a24 24 0 0 1-24 24h-.5a82 82 0 0 0 .5-8.9V80h24Z"/></svg>
